!!!!SEGMENT: pl-wumfc--n47524--006_karlowicz-mieczyslaw--szesc-piesni-op-6-no-6-smutna-jest-dusza-moja.krn
!!!cenid: 18xx:4248
!!!COM: Karłowicz, Mieczysław
!!!COM-rismID: pe30108288
!!!CDT: 1876/12/11-1909/02/08
!!!CNT: Polish
!!!GTL: Sześć pieśni op. 6
!!!OTL: No. 6 Smutną jest dusza moja
!!!OMV: 006
!!!PDT: 1897
!!!AGN:
!!!SMS-siglum: PL-Wumfc
!!!SMS-shelfmark: N47524
!!!SMS-shelfwork: 001-006 G
!!!SMS-variant:
!!!SMS-altvar:
!!!NIFC-rismSourceID: 1001177915
!!!NIFC-rismChildID: 1001177915
!!!NIFC-islandoraID: pl-wumfc:8021
!!!URL-pdf-islandora: https://repozytorium.nifc.pl/islandora/object/pl-wumfc:8021/datastream/PDF/view
!!!URL-scan: https://polish.musicsources.pl/pl/lokalizacje/galeria/druki-muzyczne/12515/7 @EN{Scan on Polish Music Sources Website} @PL{Skany w portalu Dziedzictwo Muzyki Polskiej w otwartym dostępie}
!!!ONB-nifc: Skan 0007
!!!AIN: 2 piano 1 vox
!!!key: a
**kern	**kern	**dynam	**kern	**text	**dynam
*part3	*part2	*part2	*part1	*part1	*part1
*staff3	*staff2	*	*staff1	*staff1	*
*I"[Piano]	*I"[Piano]	*	*I"[głos]	*	*
*I'pf	*I'pf	*	*I'V	*	*
*ICklav	*ICklav	*	*ICvox	*	*
*Ipiano	*Ipiano	*	*Ivox	*	*
*clefF4	*clefG2	*	*clefG2	*	*
*k[]	*k[]	*	*k[]	*	*
*a:	*a:	*	*a:	*	*
*M4/4	*M4/4	*	*M4/4	*	*
*met(c)	*met(c)	*	*met(c)	*	*
=1	=1	=1	=1	=1	=1
!	!	!	!LO:TX:a:B:t=Lento. M. M. [quarter] = 60.	!	!
2AAA/ 2EE 2AA	2A/ 2c 2e 2a	ff	1r	.	.
2AAA/ 2FF 2AA	2A/ 2c 2d#X 2a	.	.	.	.
=2	=2	=2	=2	=2	=2
2AAA/ 2EE 2AA	2A/ 2c 2e 2a	.	1r	.	.
2AAA/ 2FF 2AA	2A/ 2c 2d#X 2a	.	.	.	.
=3	=3	=3	=3	=3	=3
2AAA/ 2EE 2AA	2A/ 2c 2e 2a	p	4a/	Smut-	.
.	.	.	8a/	-ną	.
.	.	.	8a/	jest	.
2AAA/ 2FF 2AA	2A/ 2c#X 2d 2a	.	4cc\	du-	.
.	.	.	4cc\	-sza	.
=4	=4	=4	=4	=4	=4
2AAA/ 2EE 2AA	2A/ 2c 2e 2a	.	8a/	mo-	.
.	.	.	8a/	-ja	.
.	.	.	8a/	aż	.
.	.	.	8a/	do	.
2FF#X/ [2C [2E-X	2A/ [2c [2e-X 2a	.	4cc\	śmier-	.
.	.	.	4cc\	-ci	.
!!LO:LB:g=original	!	!	!	!	!
=5	=5	=5	=5	=5	=5
*^	*^	*	*	*	*
4C/] 4E-]	2FFn\	4c\] 4e-X]	2A/ 2a	.	8r	.	.
.	.	.	.	.	8a/	O-	.
4D/	.	2B\ 2d	.	.	8a/	-pusz-	.
.	.	.	.	.	8a/	-czam	.
2EE-/ 2E-	2ryy	.	2G/ 2g	.	4g/	rę-	.
.	.	4c\	.	.	4c/	-ce,	.
=6	=6	=6	=6	=6	=6	=6	=6
4r	2DD\ 2D	2F/ 2f	4.c\	.	8c/	niech	.
.	.	.	.	.	8B/	się	.
2GG/	.	.	.	.	8c/	co	.
.	.	.	[8B\	.	8d/	chce,	.
.	2CC\ 2C	2E/ 2e	4B\]	.	4e/	dzie-	.
4GG/	.	.	4c\	.	4e/	-je,	.
=7	=7	=7	=7	=7	=7	=7	=7
(4G/	2BB-X\	(4e/	2G\ 2d	.	4e/	Już	.
8F/L	.	8f/L	.	.	8f/	mi	.
8E/J	.	8g/J	.	.	8g/	cios	.
!	!	!	!	!	!	!	!LO:HP:a
4F/)	4AA\	2A/) 2c#X 2a	4f\	<	4a/	ża-	<
4G/	4GG\	.	4e\	.	4a/	-den	.
*v	*v	*	*	*	*	*	*
!!LO:LB:g=original	!	!	!	!	!	!
=8	=8	=8	=8	=8	=8	=8
4FF#X/	4A/ 4cn 4e-X 4a	4ryy	.	8a/	moz-	.
.	.	.	.	8a/	-gu	.
8GG/L	8G/L 8g	4c\ 4e-	.	8g/	nie	.
8AA/J	8F#X/J 8f#X	.	.	8f#X/	prze-	.
4GG/ 4G	4B-X/ 4b-X	[2c\ [>2e-	.	4b-X\	-wier-	.
4FF#X/ 4F#X	4A/ 4a	.	.	4a/	-ci,	.
=9	=9	=9	=9	=9	=9	=9
*^	*	*	*	*	*	*
4Fn/	2FFn\	2A/ 2a	4c\] 4e-]	.	8r	.	.
!	!	!	!	!	!	!	!LO:DY:a
.	.	.	.	.	8a/	Bom	f
4D/	.	.	4Bn\ 4d	.	8a/	juz	.
.	.	.	.	.	8a/	zeń	.
!	!	!	!	!	!	!	!LO:HP:a
2EE/ 2E	2ryy	(4a/	2A\ 2c	>	4a/	wy-	>
.	.	4eny/)	.	.	8e/	-gnał	.
.	.	.	.	.	8e/	do	.
*v	*v	*	*	*	*	*	*
=10	=10	=10	=10	=10	=10	=10
*	*	*^	*	*	*	*
*^	*	*	*	*	*	*	*
4D#X/	2EE\	4.f/	[2c\	4A\	.	4f/	szczę-	.
4Dn/	.	.	.	4G#X\	.	8f/	-tu	.
.	.	[<8e/	.	.	.	8e/	na-	.
8AAA:/ 8EE: 8AA:	2ryy	8A/ 8c] 8e] 8a	2ryy	2ryy	.	8a/	-dzie-	.
8r	.	4.A/ 4.c 4.e 4.a	.	.	]]	8a/	-ję.	.
(8AA/L	.	.	.	.	.	4r	.	]
8GG/J	.	.	.	.	.	.	.	.
*v	*v	*	*	*	*	*	*	*
*	*v	*v	*v	*	*	*	*
!!LO:PB:g=original	!	!	!	!	!
=11	=11	=11	=11	=11	=11
!	!	!	!LO:TX:a:B:t=Più mosso.	!	!
2FF/) 2C	8r	mf	1r	.	.
.	8B/L 8f 8a	.	.	.	.
.	8d/ 8f 8a	.	.	.	.
.	8c/J 8f 8a	.	.	.	.
2FF/ 2C	8r	>	.	.	.
.	8B/L 8f 8a	.	.	.	.
.	8d/ 8f 8a	.	.	.	.
.	8c/J 8f 8a	]]	.	.	.
=12	=12	=12	=12	=12	=12
2FF/ 2C	8r	p	8r	.	.
!	!	!	!	!	!LO:DY:a
.	8B/L 8f 8a	.	8a/	I	mf
.	8d/ 8f 8a	.	8a/	o-	.
.	8c/J 8f 8a	.	8a/	-to	.
2FF/ 2C	8r	.	4a/	sto-	.
.	8B/L 8f 8a	.	.	.	.
.	8d/ 8f 8a	.	8a/	-ję	.
.	8c/J 8f 8a	.	8a/	mil-	.
=13	=13	=13	=13	=13	=13
2FF/ 2C	8r	.	4b-X\	-czą-	.
.	8Bn/L 8e 8b-X	.	.	.	.
.	8d/ 8e 8b-	.	8b-\	-cy,	.
.	8c/J 8e 8b-	.	8b-\	jak	.
2FF/ 2C	8r	.	4dd\	we	.
.	8Bn/L 8e 8b-X	.	.	.	.
.	8d/ 8e 8b-	.	4cc\	śnie.	.
.	8c/J 8e 8b-	.	.	.	.
!!LO:LB:g=original	!	!	!	!	!
=14	=14	=14	=14	=14	=14
2FF/ 2C	8r	.	8r	.	.
.	8B/L 8f 8a	.	8a/	Nad	.
.	8d/ 8f 8a	.	8a/	ur-	.
.	8c/J 8f 8a	.	8a/	-ną	.
2FF/ 2C	8r	.	8a/	prag-	.
.	8B/L 8f 8a	.	8a/	-nień	.
.	8d/ 8f 8a	.	4a/	mych,	.
.	8c/J 8f 8a	.	.	.	.
=15	=15	=15	=15	=15	=15
*^	*^	*	*	*	*
2DD/ 2BB	2ryy	8r	2ryy	.	8r	.	.
.	.	8B/L 8f 8a	.	.	8a/	roz-	.
.	.	8e/ 8f 8a	.	.	8g/	-bi-	.
.	.	8d/J 8f 8a	.	.	8f/	-tą	.
4BB/	[2EE\	8r	8ryy	.	4e/	wćwier-	.
.	.	8e/L 8g#X	(8B\L	.	.	.	.
4r	.	8e/ 8g#	8d\	.	4e/	-ci,	.
.	.	8e/J 8g#	16c\L	.	.	.	.
.	.	.	16B\JJ	.	.	.	.
*v	*v	*	*	*	*	*	*
*	*v	*v	*	*	*	*
=16	=16	=16	=16	=16	=16
!	!	!	!LO:TX:a:B:t=Tempo I.	!	!
2AAA/ 2EE] 2AA	2A/) 2c 2e 2a	mf	8r	.	.
!	!	!	!	!	!LO:DY:a
.	.	.	8a/	A	mf
.	.	.	8a/	żem	.
.	.	.	8a/	ją	.
2AAA/ 2FF 2AA	2A/ 2c 2d#X 2a	.	4cc\	strą-	.
.	.	.	4cc\	-cić	.
!!LO:LB:g=original	!	!	!	!	!
=17	=17	=17	=17	=17	=17
*^	*	*	*	*	*
!	!	!	!	!	!	!LO:HP:a
2AAA/ 2EE 2AA	2ryy	2A/ 2c 2e 2a	.	8a/	mu-	<
.	.	.	.	8a/	-siał	.
.	.	.	<	8a/	w proch	.
.	.	.	.	8a/	tak	.
4r	2FF\	4A/ 4c 4e-X 4a	.	4cc\	wcze-	.
8.F/L	.	8.f/L	.	4cc\	-śnie,	[
[16F/Jk	.	[>16f/Jk	[[	.	.	.
=18	=18	=18	=18	=18	=18	=18
*	*	*^	*	*	*	*
*	*	*	*^	*	*	*	*
4F/_	2BB-X\	2dd-X/	2d-X\	4f\]	f	4dd-X\	Smut-	.
8.F/L]	.	.	.	8.f\L	.	8dd-\	-ną	.
.	.	.	.	.	.	8dd-\	jest	.
[16F/Jk	.	.	.	[16f\Jk	.	.	.	.
!	!	!LO:TX:b:t=molto dim._:dur=3h:ext=ud:problem:text with extention lines	!	!	!	!LO:TX:a:i:t=molto	!	!
4F/_	2AA\	2c/ 2cc	2ryy	4f\]	>	4cc\	du-	.
!	!	!	!	!	!	!	!	!LO:HP:a
4F/_	.	.	.	4f\	.	4f/	-szą	>
*v	*v	*	*	*	*	*	*	*
=19	=19	=19	=19	=19	=19	=19	=19
2FF/ 2F]	2.cc/	2c\ 2dn	8g#X\L	.	4.cc\	mo-	.
.	.	.	8e\	.	.	.	.
.	.	.	8f\	.	.	.	.
.	.	.	8gn\J	.	8cc\	-ja	.
2EE/ 2E	.	2d\ 2g#X	4c\	.	4cc\	aż	.
.	4B/ 4b	.	4ryy	.	4b\	do	]]
*	*v	*v	*v	*	*	*	*
=20	=20	=20	=20	=20	=20
!	!	!	!	!	!LO:DY:a
4.DD#X^>/ 4.D#X	8r	] f	4a/	śmier-	pp
.	4A/ 4c 4f#X 4a	.	.	.	.
.	.	.	4a/	-ci.	.
8FF#X^>/ 8F#X	8A/ 8c 8f# 8a	.	.	.	.
4.DD#^>/ 4.D#	8r	.	2r	.	.
.	4A/ 4c 4f# 4a	.	.	.	.
8FF#^>/ 8F#	8A/ 8c 8f# 8a	.	.	.	.
!!LO:LB:g=original	!	!	!	!	!
=21	=21	=21	=21	=21	=21
4.DDn^>/ 4.Dn	8r	.	1r	.	.
.	4A/ 4B 4fn 4a	.	.	.	.
8FFn^>/ 8Fn	8A/ 8B 8f 8a	.	.	.	.
4.DD^>/ 4.D	8r	.	.	.	.
.	4A/ 4B 4f 4a	.	.	.	.
8FF^>/ 8F	8A/ 8B 8f 8a	.	.	.	.
=22	=22	=22	=22	=22	=22
4.CC^>/ 4.C	8r	.	1r	.	.
.	4A/ 4e 4a	.	.	.	.
8EE^>/ 8E	8A/ 8e 8a	.	.	.	.
4.CC^>/ 4.C	8r	.	.	.	.
.	4A/ 4e 4a	.	.	.	.
8EE^>/ 8E	8A/ 8e 8a	.	.	.	.
=23	=23	=23	=23	=23	=23
4.BBB^>/ 4.BB	8r	.	1r	.	.
.	4A/ 4d#X 4a	.	.	.	.
8FF^>/ 8F	8A/ 8d# 8a	.	.	.	.
4.EE^>/ 4.E	8r	.	.	.	.
.	4G#X/ 4dn 4g#X	.	.	.	.
[8E\	8G#/ 8d 8g#	.	.	.	.
=24	=24	=24	=24	=24	=24
4AA/ 4E]	4A/ 4c 4e 4a	.	1r	.	.
2AA/ 2E	2A/ 2c 2e 2a	.	.	.	.
[4AA/ [4E	[4A/ [4c [4e [4a	.	.	.	.
=25	=25	=25	=25	=25	=25
1AAA; 1EE 1AA] 1E]	1A;] 1c] 1e] 1a]	.	1r;	.	.
==	==	==	==	==	==
*-	*-	*-	*-	*-	*-
!!!system-decoration: s1{(s2,s3)}
!!!RDF**kern: > = above
!!!RDF**kern: < = below
!!!ENC: Filip Voros
!!!END: 2022-11-23
!!!ENC: Natalia Wrzos
!!!END: 2022-12-08
!!!YEC: Copyright 2022 Narodowy Instytut Fryderyka Chopina (https://polishscores.org)
!!!YEM: License CC-BY-4.0 (https://creativecommons.org/licenses/by/4.0)
